apps/app.mento.org/public/tokens/JPYm.svg

<svg width="220" height="220" viewBox="0 0 220 220" fill="none" xmlns="http://www.w3.org/2000/svg">
<path d="M110 220C170.751 220 220 170.751 220 110C220 49.2487 170.751 0 110 0C49.2487 0 0 49.2487 0 110C0 170.751 49.2487 220 110 220Z" fill="#510DC1"/>
<path d="M110 23C158.049 23 197 61.9512 197 110C197 158.049 158.049 197 110 197C61.9512 197 23 158.049 23 110C23 61.9512 61.9512 23 110 23Z" stroke="url(#paint0_linear_2057_379)" stroke-width="36"/>
<path d="M110 202C160.81 202 202 160.81 202 110C202 59.1898 160.81 18 110 18C59.1898 18 18 59.1898 18 110C18 160.81 59.1898 202 110 202Z" fill="#510DC1"/>
<path d="M101.404 164V147.115H80.3877V135.495H101.404V125.974H80.3877V114.353H96.0727L66 61H86.347L110.377 105.515L134.289 61H154L124.304 114.353H139.738V125.974H119.106V135.495H139.738V147.115H119.106V164H101.404Z" fill="url(#paint1_linear_2057_379)"/>
<defs>
<linearGradient id="paint0_linear_2057_379" x1="110" y1="5" x2="110" y2="215" gradientUnits="userSpaceOnUse">
<stop offset="0.02" stop-color="white"/>
<stop offset="0.384615" stop-color="#FFABAB"/>
<stop offset="0.677885" stop-color="#FFA5A5"/>
<stop offset="0.98" stop-color="white"/>
</linearGradient>
<linearGradient id="paint1_linear_2057_379" x1="110" y1="61" x2="110" y2="164" gradientUnits="userSpaceOnUse">
<stop stop-color="#E2DBFF"/>
<stop offset="0.975962" stop-color="#FBFAFF"/>
</linearGradient>
</defs>
</svg>

<svg xmlns="http://www.w3.org/2000/svg" width="220" height="220" fill="none" viewBox="0 0 220 220"><path fill="#510dc1" d="M110 220c60.751 0 110-49.249 110-110S170.751 0 110 0 0 49.249 0 110s49.249 110 110 110"/><path stroke="url(#a)" stroke-width="36" d="M110 23c48.049 0 87 38.951 87 87s-38.951 87-87 87-87-38.951-87-87 38.951-87 87-87Z"/><path fill="#510dc1" d="M110 202c50.81 0 92-41.19 92-92s-41.19-92-92-92-92 41.19-92 92 41.19 92 92 92"/><path fill="url(#b)" d="M101.404 164v-16.885H80.388v-11.62h21.016v-9.521H80.388v-11.621h15.685L66 61h20.347l24.03 44.515L134.289 61H154l-29.696 53.353h15.434v11.621h-20.632v9.521h20.632v11.62h-20.632V164z"/><defs><linearGradient id="a" x1="110" x2="110" y1="5" y2="215" gradientUnits="userSpaceOnUse"><stop offset=".02" stop-color="#fff"/><stop offset=".385" stop-color="#ffabab"/><stop offset=".678" stop-color="#ffa5a5"/><stop offset=".98" stop-color="#fff"/></linearGradient><linearGradient id="b" x1="110" x2="110" y1="61" y2="164" gradientUnits="userSpaceOnUse"><stop stop-color="#e2dbff"/><stop offset=".976" stop-color="#fbfaff"/></linearGradient></defs></svg>
